X: 22168
T: L'Inconnu De Limoise
R: mazurka
M: 3/4
K: Gmajor
B2- B>G cA|B2- B>B c>d|c2- c>B A>G|D2- D>D G>A|
B2- B>G cA|B2- B>B c>d|c2- c>B A>G|A3:|
e2 g>f e>f|d2- d>c B>A|G>F G>A B>G|D2 G2 F2|
E2- E>F G>A|G2 F2 E2|1 F2- F>E F>G|A3:|
2 F2 F>G A>B|G3||

